X:110
T:Minuett EHo.110
M:3/4
L:1/4
Q:1/4=110
S:Edward Holmes MS, East Riding Archives, Beverley DDX114/21
R:Minuet
C:Haydn's
Z:Village Music Project. R.Greig 2016
K:D
d/f/|"^f"aaa|d'2(d/f/)|ggg|b2(e/g/)|
ffa|eeg|AA/B/c/A/|dz/:|
|:"_p"d|=ccc|(AB).B|(^GA).A|(F=G)"_f"(D/G/)|
BG(D/G/)|(B/A/G/F/E/^D/)|(E/F/E/=D/C/B,/)|A,z/(f/g/)|
aaa|d'2d/f/|ggg|b2(e/g/)|
ffa|eeg|AA/B/c/A/|H"_4"[d2^G2]|
[c=G]c/d/e/c/|daa|^daa|e^gg|
e=gg|dff|=cff|Bee|
_Bee|Add|=Fdd|[d3^F3]|
dec|dz(d/f/)|aaa|d'2a/f/|
gec|dzH:||:A|^G/A/B/A/=G/E/|D2G/D/|
D/(C/E/C/A,/)E/|(E/F/)(D/E/)F/G/|^G/A/B/A/=G/E/|D2G/E/|
D/C/E/C/A,/C/|Dz:||:(c/B/)|"_f"A/^G/B/G/E/G/|AA,=c/A/|
=G/F/A/F/D/F/|GBb/g/|f/e/^d/e/g/e/|=d/c/B/A/d/A/|
G/F/E/D/C/D/|A2"_p"A|^G/A/B/A/=G/E/|D2(G/D/)|
D/C/E/C/A,/C/|E/F/D/E/F/G/|^G/A/B/A/=G/E/|D2G/E/|
D/C/E/C/A,/C/|D"^DC"z||

